src/svg/uf0f2-suitcase.svg

<!-- Generated by IcoMoon.io -->
<svg version="1.1" xmlns="http://www.w3.org/2000/svg" width="32" height="32" viewBox="0 0 32 32">
<path d="M11.429 6.857h9.143v-2.286h-9.143v2.286zM5.143 6.857v22.857h-1.143c-2.196 0-4-1.804-4-4v-14.857c0-2.196 1.804-4 4-4h1.143zM25.143 6.857v22.857h-18.286v-22.857h2.286v-2.857c0-0.946 0.768-1.714 1.714-1.714h10.286c0.946 0 1.714 0.768 1.714 1.714v2.857h2.286zM32 10.857v14.857c0 2.196-1.804 4-4 4h-1.143v-22.857h1.143c2.196 0 4 1.804 4 4z"></path>
</svg>

<svg xmlns="http://www.w3.org/2000/svg" width="32" height="32"><path d="M11.429 6.857h9.143V4.571h-9.143v2.286zm-6.286 0v22.857H4c-2.196 0-4-1.804-4-4V10.857c0-2.196 1.804-4 4-4h1.143zm20 0v22.857H6.857V6.857h2.286V4c0-.946.768-1.714 1.714-1.714h10.286c.946 0 1.714.768 1.714 1.714v2.857h2.286zm6.857 4v14.857c0 2.196-1.804 4-4 4h-1.143V6.857H28c2.196 0 4 1.804 4 4z"/></svg>
